X:1
T:Yo Ho Ho and a Bottle of Rum
M:4/4
L:1/4
K:Eb
 C D E D/2C/2| E D C2| C D E D/2C/2| E/2 E D/2 C2| F G/2G/2 A/2 A F/2|\
 A G/2G/2 F2| F G A G/2F/2| A/2 A G/2 F3/2 ^F/2| G G E C/2D/2| E D C3/2 ^F/2|\
 G G E C/2D/2| E D C3/2 B,/2| E E F F| G G ^F3/2 F/2| G G =A F| B B =A3/2 A/2|\
 B B =A3/2 _A/2| G G ^F3/2 F/2| G G E C/2D/2| E C D2| C D E D/2C/2|\
 E/2 E D/2 C2|
